build/documents/FilePPTSolid.svg

<svg xmlns="http://www.w3.org/2000/svg" fill="none" viewBox="0 0 24 24" focusable="false"><path d="M0 0H24V24H0z"/><path fill="#74767B" fill-rule="evenodd" d="M19 11C20.6569 11 22 12.3431 22 14L22 18C22 19.6569 20.6569 21 19 21L5 21C3.34315 21 2 19.6569 2 18L2 14C2 12.3431 3.34315 11 5 11L5 6C5 4.34315 6.34315 3 8 3L13.042 3C13.8752 3 14.671 3.34655 15.2385 3.95662L18.1965 7.13629C18.7129 7.69141 19 8.42148 19 9.17966L19 11ZM13.042 4.3L8 4.3C7.06112 4.3 6.3 5.06112 6.3 6L6.3 11L17.7 11L17.7 9.17966C17.7 9.11913 17.6968 9.05892 17.6904 8.99925L15.2999 8.99926C14.223 8.99926 13.3499 8.12621 13.3499 7.04926L13.3499 4.32811C13.2491 4.30954 13.1461 4.3 13.042 4.3ZM14.6499 5.23254L16.9447 7.69926L15.2999 7.69926C14.9409 7.69926 14.6499 7.40824 14.6499 7.04926L14.6499 5.23254ZM6.68223 17.7586C6.68223 18.1176 6.39121 18.4086 6.03223 18.4086C5.67324 18.4086 5.38223 18.1176 5.38223 17.7586L5.38223 14.2413C5.38223 13.8823 5.67324 13.5913 6.03223 13.5913L7.35032 13.5913C8.343 13.5913 9.14773 14.3961 9.14773 15.3887C9.14773 16.3814 8.343 17.1861 7.35032 17.1861L6.68223 17.1861L6.68223 17.7586ZM10.9984 18.4086C11.3574 18.4086 11.6484 18.1176 11.6484 17.7586L11.6484 17.1861L12.3165 17.1861C13.3091 17.1861 14.1139 16.3814 14.1139 15.3887C14.1139 14.3961 13.3091 13.5913 12.3165 13.5913L10.9984 13.5913C10.6394 13.5913 10.3484 13.8823 10.3484 14.2413L10.3484 17.7586C10.3484 18.1176 10.6394 18.4086 10.9984 18.4086ZM17.9673 14.8941C18.3263 14.8941 18.6173 14.6031 18.6173 14.2441C18.6173 13.8851 18.3263 13.5941 17.9673 13.5941L15.5453 13.5941C15.1864 13.5941 14.8953 13.8851 14.8953 14.2441C14.8953 14.6031 15.1864 14.8941 15.5453 14.8941L16.1064 14.8941L16.1064 17.7614C16.1064 18.1203 16.3974 18.4114 16.7564 18.4114C17.1154 18.4114 17.4064 18.1203 17.4064 17.7614L17.4064 14.8941L17.9673 14.8941ZM6.68223 15.8861L6.68223 14.8913L7.35032 14.8913C7.62503 14.8913 7.84773 15.114 7.84773 15.3887C7.84773 15.6634 7.62503 15.8861 7.35032 15.8861L6.68223 15.8861ZM12.3165 14.8913L11.6484 14.8913L11.6484 15.8861L12.3165 15.8861C12.5912 15.8861 12.8139 15.6634 12.8139 15.3887C12.8139 15.114 12.5912 14.8913 12.3165 14.8913Z"/></svg>

<svg xmlns="http://www.w3.org/2000/svg" fill="none" viewBox="0 0 24 24" focusable="false"><path fill="#74767B" fill-rule="evenodd" d="M19 11c1.65 0 3 1.34 3 3v4c0 1.65-1.35 3-3 3H5c-1.66 0-3-1.35-3-3v-4c0-1.66 1.34-3 3-3V6c0-1.66 1.34-3 3-3h5.04c.83 0 1.63.34 2.19.95l2.96 3.18c.52.56.81 1.29.81 2.04zm-5.96-6.71H8c-.94 0-1.7.77-1.7 1.71v5h11.4V9.17c0-.06-.01-.12-.01-.18h-2.4c-1.07 0-1.95-.87-1.95-1.95V4.32q-.15-.03-.3-.03m1.6.94 2.3 2.46h-1.65c-.35 0-.65-.29-.65-.65zM6.68 17.75c0 .36-.29.65-.65.65s-.65-.29-.65-.65v-3.51c0-.36.29-.65.65-.65h1.32c.99 0 1.79.8 1.79 1.79 0 1-.8 1.8-1.79 1.8h-.67zm4.31.65c.36 0 .65-.29.65-.65v-.57h.67c.99 0 1.8-.8 1.8-1.8 0-.99-.81-1.79-1.8-1.79h-1.32c-.36 0-.65.29-.65.65v3.51c0 .36.29.65.65.65m6.97-3.51c.36 0 .65-.29.65-.65s-.29-.65-.65-.65h-2.42c-.36 0-.65.29-.65.65s.29.65.65.65h.56v2.87c0 .36.29.65.65.65s.65-.29.65-.65v-2.87zm-11.28.99v-.99h.67c.27 0 .49.22.49.49 0 .28-.22.5-.49.5zm5.63-.99h-.67v.99h.67a.495.495 0 1 0 0-.99"/></svg>
